icons/svg/infrastructure_components/unlabeled/master.svg

<svg height="17.500378mm" viewBox="0 0 18.035334 17.500378" width="18.035334mm" xmlns="http://www.w3.org/2000/svg"><g transform="translate(-.992626 -1.174181)"><g transform="matrix(1.0148887 0 0 1.0148887 16.902146 -2.698726)"><path d="m-6.8492015 4.2724668a1.1191255 1.1099671 0 0 0 -.4288818.1085303l-5.8524037 2.7963394a1.1191255 1.1099671 0 0 0 -.605524.7529759l-1.443828 6.2812846a1.1191255 1.1099671 0 0 0 .151943.851028 1.1191255 1.1099671 0 0 0 .06362.08832l4.0508 5.036555a1.1191255 1.1099671 0 0 0 .874979.417654l6.4961011-.0015a1.1191255 1.1099671 0 0 0 .8749788-.416906l4.0493043-5.037295a1.1191255 1.1099671 0 0 0 .2163114-.939349l-1.44607203-6.2812886a1.1191255 1.1099671 0 0 0 -.60552451-.7529758l-5.85315166-2.7948425a1.1191255 1.1099671 0 0 0 -.5426519-.1085303z" fill="#326ce5"/><path d="m-6.8523435 3.8176372a1.1814304 1.171762 0 0 0 -.4520849.1152668l-6.1787426 2.9512758a1.1814304 1.171762 0 0 0 -.639206.794891l-1.523915 6.6308282a1.1814304 1.171762 0 0 0 .160175.89893 1.1814304 1.171762 0 0 0 .06736.09281l4.276094 5.317236a1.1814304 1.171762 0 0 0 .92363.440858l6.8576188-.0015a1.1814304 1.171762 0 0 0 .9236308-.44011l4.2745966-5.317985a1.1814304 1.171762 0 0 0 .228288-.990993l-1.52615681-6.6315712a1.1814304 1.171762 0 0 0 -.6392054-.7941425l-6.17874269-2.9512758a1.1814304 1.171762 0 0 0 -.5733398-.1145183zm.00299.4550789a1.1191255 1.1099671 0 0 1 .5426517.1085303l5.85315169 2.7948425a1.1191255 1.1099671 0 0 1 .60552822.7529759l1.44607289 6.2812852a1.1191255 1.1099671 0 0 1 -.2163123.939348l-4.0493032 5.037304a1.1191255 1.1099671 0 0 1 -.8749789.416906l-6.4961006.0015a1.1191255 1.1099671 0 0 1 -.874979-.417652l-4.0508-5.036554a1.1191255 1.1099671 0 0 1 -.06362-.08832 1.1191255 1.1099671 0 0 1 -.151942-.851028l1.443827-6.2812853a1.1191255 1.1099671 0 0 1 .605524-.7529758l5.8524036-2.7963395a1.1191255 1.1099671 0 0 1 .4288819-.1085303z" fill="#fff"/></g><path d="m9.9922574 5.0101373c-.1383234-.0044-3.9953139 1.8917791-4.0457429 1.9890241-.121153.233682-.998802 4.2814776-.947235 4.3687236.03.05065.662199.852305 1.404567 1.780771l1.349798 1.687754 2.2215743.0011 2.2215722.0011 1.412819-1.765784 1.41388-1.765265-.49456-2.1688599c-.2722-1.1927408-.51564-2.1882807-.54051-2.2122707-.0695-.06688-3.92118-1.9137391-3.9961626-1.9161601zm.2361666 1.9828241c.186637.008.205792.291571.605128.321427.5216.039.465508-.446651.864553-.108522.399044.338125-.0889.362641.03514.870749.12409.5081041.568801.3050991.370523.7890987-.198279.484002-.372613.02728-.81751.302308-.444897.2750229-.114564.6353459-.636138.5963469-.521652-.039-.140467-.3460649-.53951-.6841969-.399044-.3381318-.6402382.08746-.7643012-.4206476-.12409-.5081081.2859352-.2410172.4842142-.725019.198701-.4840471-.2810942-.5812531.1638294-.8562791.05564-.03434.1018906-.05688.1421056-.07028.03508-.01167.06533-.01614.09197-.01497zm.521493.572059c-.07578-.0005306-.151209.01021-.223758.03204-.400393.120732-.626954.5433219-.505909.943613.12094.3999197.54311.6261487.943107.5053937.399838-.120746.626268-.5426107.505909-.9425788-.09575-.3178199-.387429-.5361539-.719349-.5384659zm-2.9926475 1.3017277c.03969.00079.08832.009.1482991.02739.4799279.147138-.0077.399503.334354.7668789.3420531.367377.6285182-.101086.7410452.388091s-.3499913.192921-.4971261.672827c-.1471612.479904.4014791.494083.03411.836123-.367374.342041-.3418151-.20606-.8309501-.09353-.489188.112527-.227039.594654-.70694.447516-.479928-.147137.0077-.3995-.334354-.766876-.342054-.367379-.628518.100571-.741045-.388607-.112528-.48918.349991-.192924.497125-.672826.147162-.479907-.401981-.49357-.03461-.8356099.367374-.342043.342291.2060649.831453.09354.428043-.09846.280643-.479607.558641-.474906zm3.5672165.524516c.04551.000536.100807.01243.170022.03927.55327.2147389-.175234.5458939.253735.9560129.428969.410118.727472-.332741.966867.210323.239369.543065-.510434.262432-.497126.855763.01323.593331.749591.27872.534829.83199-.214709.553268-.545888-.175247-.955992.25373-.410131.428977.33221.726972-.210847.966348-.543057.23938-.261382-.509939-.854736-.496609-.593328.01333-.279215.749072-.83251.534334-.5532432-.214739.175259-.545894-.253735-.956014-.4289692-.41012-.7269692.33274-.9663384-.210323-.2393679-.543065.5099052-.261913.4966232-.855244-.01349-.593331-.7495911-.279239-.5348553-.832509.2147363-.553269.5463913.175763.9565225-.253214.410103-.428976-.3327672-.727487.210317-.966863.543055-.2393769.26191.509939.855237.496609.519192-.01167.343429-.5764079.661987-.5736079zm-3.8814095.2552799c-.417988-.000158-.756946.338564-.757078.756544-.000159.418182.338905.757219.757078.75706.4179631-.000148.756682-.339095.7565239-.75706-.0001329-.417763-.3387728-.756396-.7565239-.756544zm3.2535535.725021c-.615684.000042-1.114846.498983-1.11519 1.114661-.000238.616082.499109 1.11565 1.11519 1.115692.616268.000222 1.115907-.499425 1.115669-1.115692 0-.615866-.499798-1.114883-1.115669-1.114661z" fill="#fff"/></g></svg>

<?xml version="1.0" encoding="UTF-8" standalone="no"?>
<!-- Created with Inkscape (http://www.inkscape.org/) -->

<svg
   xmlns:dc="http://purl.org/dc/elements/1.1/"
   xmlns:cc="http://creativecommons.org/ns#"
   xmlns:rdf="http://www.w3.org/1999/02/22-rdf-syntax-ns#"
   xmlns:svg="http://www.w3.org/2000/svg"
   xmlns="http://www.w3.org/2000/svg"
   xmlns:sodipodi="http://sodipodi.sourceforge.net/DTD/sodipodi-0.dtd"
   xmlns:inkscape="http://www.inkscape.org/namespaces/inkscape"
   width="18.035334mm"
   height="17.500378mm"
   viewBox="0 0 18.035334 17.500378"
   version="1.1"
   id="svg11531"
   inkscape:version="0.91 r13725"
   sodipodi:docname="master.svg">
  <defs
     id="defs11525" />
  <sodipodi:namedview
     id="base"
     pagecolor="#ffffff"
     bordercolor="#666666"
     borderopacity="1.0"
     inkscape:pageopacity="0.0"
     inkscape:pageshadow="2"
     inkscape:zoom="8"
     inkscape:cx="16.968621"
     inkscape:cy="33.509081"
     inkscape:document-units="mm"
     inkscape:current-layer="layer1"
     showgrid="false"
     inkscape:window-width="1440"
     inkscape:window-height="771"
     inkscape:window-x="55"
     inkscape:window-y="0"
     inkscape:window-maximized="0"
     fit-margin-top="0"
     fit-margin-left="0"
     fit-margin-right="0"
     fit-margin-bottom="0" />
  <metadata
     id="metadata11528">
    <rdf:RDF>
      <cc:Work
         rdf:about="">
        <dc:format>image/svg+xml</dc:format>
        <dc:type
           rdf:resource="http://purl.org/dc/dcmitype/StillImage" />
        <dc:title />
      </cc:Work>
    </rdf:RDF>
  </metadata>
  <g
     inkscape:label="Calque 1"
     inkscape:groupmode="layer"
     id="layer1"
     transform="translate(-0.99262638,-1.174181)">
    <g
       id="g70"
       transform="matrix(1.0148887,0,0,1.0148887,16.902146,-2.698726)">
      <path
         inkscape:export-ydpi="250.55"
         inkscape:export-xdpi="250.55"
         inkscape:export-filename="new.png"
         inkscape:connector-curvature="0"
         id="path3055"
         d="m -6.8492015,4.2724668 a 1.1191255,1.1099671 0 0 0 -0.4288818,0.1085303 l -5.8524037,2.7963394 a 1.1191255,1.1099671 0 0 0 -0.605524,0.7529759 l -1.443828,6.2812846 a 1.1191255,1.1099671 0 0 0 0.151943,0.851028 1.1191255,1.1099671 0 0 0 0.06362,0.08832 l 4.0508,5.036555 a 1.1191255,1.1099671 0 0 0 0.874979,0.417654 l 6.4961011,-0.0015 a 1.1191255,1.1099671 0 0 0 0.8749788,-0.416906 L 1.3818872,15.149453 A 1.1191255,1.1099671 0 0 0 1.5981986,14.210104 L 0.15212657,7.9288154 A 1.1191255,1.1099671 0 0 0 -0.45339794,7.1758396 L -6.3065496,4.3809971 A 1.1191255,1.1099671 0 0 0 -6.8492015,4.2724668 Z"
         style="fill:#326ce5;fill-opacity:1;stroke:none;stroke-width:0;stroke-miterlimit:4;stroke-dasharray:none;stroke-opacity:1" />
      <path
         id="path3054-2-9"
         d="M -6.8523435,3.8176372 A 1.1814304,1.171762 0 0 0 -7.3044284,3.932904 l -6.1787426,2.9512758 a 1.1814304,1.171762 0 0 0 -0.639206,0.794891 l -1.523915,6.6308282 a 1.1814304,1.171762 0 0 0 0.160175,0.89893 1.1814304,1.171762 0 0 0 0.06736,0.09281 l 4.276094,5.317236 a 1.1814304,1.171762 0 0 0 0.92363,0.440858 l 6.8576188,-0.0015 a 1.1814304,1.171762 0 0 0 0.9236308,-0.44011 l 4.2745966,-5.317985 a 1.1814304,1.171762 0 0 0 0.228288,-0.990993 L 0.53894439,7.6775738 A 1.1814304,1.171762 0 0 0 -0.10026101,6.8834313 L -6.2790037,3.9321555 A 1.1814304,1.171762 0 0 0 -6.8523435,3.8176372 Z m 0.00299,0.4550789 a 1.1191255,1.1099671 0 0 1 0.5426517,0.1085303 l 5.85315169,2.7948425 A 1.1191255,1.1099671 0 0 1 0.15197811,7.9290648 L 1.598051,14.21035 a 1.1191255,1.1099671 0 0 1 -0.2163123,0.939348 l -4.0493032,5.037304 a 1.1191255,1.1099671 0 0 1 -0.8749789,0.416906 l -6.4961006,0.0015 a 1.1191255,1.1099671 0 0 1 -0.874979,-0.417652 l -4.0508,-5.036554 a 1.1191255,1.1099671 0 0 1 -0.06362,-0.08832 1.1191255,1.1099671 0 0 1 -0.151942,-0.851028 l 1.443827,-6.2812853 a 1.1191255,1.1099671 0 0 1 0.605524,-0.7529758 l 5.8524036,-2.7963395 a 1.1191255,1.1099671 0 0 1 0.4288819,-0.1085303 z"
         style="color:#000000;font-style:normal;font-variant:normal;font-weight:normal;font-stretch:normal;font-size:medium;line-height:normal;font-family:Sans;-inkscape-font-specification:Sans;text-indent:0;text-align:start;text-decoration:none;text-decoration-line:none;letter-spacing:normal;word-spacing:normal;text-transform:none;writing-mode:lr-tb;direction:ltr;baseline-shift:baseline;text-anchor:start;display:inline;overflow:visible;visibility:visible;fill:#ffffff;fill-opacity:1;fill-rule:nonzero;stroke:none;stroke-width:0;stroke-miterlimit:4;stroke-dasharray:none;marker:none;enable-background:accumulate"
         inkscape:connector-curvature="0" />
    </g>
    <path
       id="path1984"
       d="m 9.9922574,5.0101373 c -0.1383234,-0.0044 -3.9953139,1.8917791 -4.0457429,1.9890241 -0.121153,0.233682 -0.998802,4.2814776 -0.947235,4.3687236 0.03,0.05065 0.662199,0.852305 1.404567,1.780771 l 1.349798,1.687754 2.2215743,0.0011 2.2215722,0.0011 1.412819,-1.765784 1.41388,-1.765265 -0.49456,-2.1688599 C 14.25673,7.9459603 14.01329,6.9504204 13.98842,6.9264304 13.91892,6.8595504 10.06724,5.0126913 9.9922574,5.0102703 Z m 0.2361666,1.9828241 c 0.186637,0.008 0.205792,0.291571 0.605128,0.321427 0.5216,0.039 0.465508,-0.446651 0.864553,-0.108522 0.399044,0.338125 -0.0889,0.362641 0.03514,0.870749 0.12409,0.5081041 0.568801,0.3050991 0.370523,0.7890987 -0.198279,0.484002 -0.372613,0.02728 -0.81751,0.302308 C 10.841361,9.443045 11.171694,9.803368 10.65012,9.764369 10.128468,9.725369 10.509653,9.4183041 10.11061,9.0801721 9.711566,8.7420403 9.4703718,9.1676321 9.3463088,8.6595245 9.2222188,8.1514164 9.632244,8.4185073 9.830523,7.9345055 10.029224,7.4504584 9.5494288,7.3532524 9.9943524,7.0782264 c 0.05564,-0.03434 0.1018906,-0.05688 0.1421056,-0.07028 0.03508,-0.01167 0.06533,-0.01614 0.09197,-0.01497 z m 0.521493,0.572059 c -0.07578,-5.306e-4 -0.151209,0.01021 -0.223758,0.03204 -0.400393,0.120732 -0.626954,0.5433219 -0.505909,0.943613 0.12094,0.3999197 0.54311,0.6261487 0.943107,0.5053937 0.399838,-0.120746 0.626268,-0.5426107 0.505909,-0.9425788 C 11.373516,7.7856684 11.081837,7.5673344 10.749917,7.5650224 Z M 7.7572695,8.8667481 c 0.03969,7.9e-4 0.08832,0.009 0.1482991,0.02739 0.4799279,0.147138 -0.0077,0.399503 0.334354,0.7668789 0.3420531,0.367377 0.6285182,-0.101086 0.7410452,0.388091 0.112527,0.489177 -0.3499913,0.192921 -0.4971261,0.672827 -0.1471612,0.479904 0.4014791,0.494083 0.03411,0.836123 -0.367374,0.342041 -0.3418151,-0.20606 -0.8309501,-0.09353 -0.489188,0.112527 -0.227039,0.594654 -0.70694,0.447516 -0.479928,-0.147137 0.0077,-0.3995 -0.334354,-0.766876 -0.342054,-0.367379 -0.628518,0.100571 -0.741045,-0.388607 -0.112528,-0.48918 0.349991,-0.192924 0.497125,-0.672826 0.147162,-0.479907 -0.401981,-0.49357 -0.03461,-0.8356099 0.367374,-0.342043 0.342291,0.2060649 0.831453,0.09354 0.428043,-0.09846 0.280643,-0.479607 0.558641,-0.474906 z m 3.5672165,0.524516 c 0.04551,5.36e-4 0.100807,0.01243 0.170022,0.03927 0.55327,0.2147389 -0.175234,0.5458939 0.253735,0.9560129 0.428969,0.410118 0.727472,-0.332741 0.966867,0.210323 0.239369,0.543065 -0.510434,0.262432 -0.497126,0.855763 0.01323,0.593331 0.749591,0.27872 0.534829,0.83199 -0.214709,0.553268 -0.545888,-0.175247 -0.955992,0.25373 -0.410131,0.428977 0.33221,0.726972 -0.210847,0.966348 -0.543057,0.23938 -0.261382,-0.509939 -0.854736,-0.496609 -0.593328,0.01333 -0.279215,0.749072 -0.83251,0.534334 C 9.3454848,13.327687 10.073987,12.996532 9.644993,12.586412 9.2160238,12.176292 8.9180238,12.919152 8.6786546,12.376089 8.4392867,11.833024 9.1885598,12.114176 9.1752778,11.520845 9.1617878,10.927514 8.4256867,11.241606 8.6404225,10.688336 8.8551588,10.135067 9.1868138,10.864099 9.596945,10.435122 10.007048,10.006146 9.2641778,9.707635 9.807262,9.468259 c 0.543055,-0.2393769 0.26191,0.509939 0.855237,0.496609 0.519192,-0.01167 0.343429,-0.5764079 0.661987,-0.5736079 z M 7.4430765,9.646544 c -0.417988,-1.58e-4 -0.756946,0.338564 -0.757078,0.756544 -1.59e-4,0.418182 0.338905,0.757219 0.757078,0.75706 C 7.8610396,11.16 8.1997585,10.821053 8.1996004,10.403088 8.1994675,9.985325 7.8608276,9.646692 7.4430765,9.646544 Z m 3.2535535,0.725021 c -0.615684,4.2e-5 -1.114846,0.498983 -1.11519,1.114661 -2.38e-4,0.616082 0.499109,1.11565 1.11519,1.115692 0.616268,2.22e-4 1.115907,-0.499425 1.115669,-1.115692 0,-0.615866 -0.499798,-1.114883 -1.115669,-1.114661 z"
       style="opacity:1;fill:#ffffff;fill-opacity:1;stroke:#eeeeee;stroke-width:0;stroke-miterlimit:10;stroke-dasharray:none;stroke-dashoffset:11.23642349;stroke-opacity:1"
       inkscape:connector-curvature="0"
       sodipodi:nodetypes="cccccccccccccscccccsccccccccccccccscscccccccccccccccccccccscccccccccccccc" />
  </g>
</svg>
